X:159
T: ICH WEISS EIN' HUEBSCHE MUELLERIN
N: Z0158
O: Europa, Mitteleuropa, Deutschland
R: Erzaehlung, lustige Romanze
M: 4/4
L: 1/4
K: C
B, | CEDC | B,B,A,
B, | CG,A,B, | C2z
B, | CEDC | B,B,A,
B, | CG,A,B, | CDE
C | DCB,A, | G,2z
B, | CB,CA, | G,2E,
C | CCDD | D2D
F | ECDB, | C3

@@@ Tune index: 9917
